src/images/header-yandex-icon.svg

<svg width="15" height="14" viewBox="0 0 15 14" fill="none" xmlns="http://www.w3.org/2000/svg">
<g clip-path="url(#clip0_54_1152)">
<path d="M9.2167 8.35C8.1167 9.485 8.0367 10.9 7.9417 14C10.8317 14 12.8267 13.99 13.8567 12.99C14.8567 11.96 14.8667 9.87 14.8667 7.075C11.7667 7.175 10.3517 7.25 9.2167 8.35ZM0.866699 7.075C0.866699 9.87 0.876699 11.96 1.8767 12.99C2.9067 13.99 4.9017 14 7.7917 14C7.6917 10.9 7.6167 9.485 6.5167 8.35C5.3817 7.25 3.9667 7.17 0.866699 7.075ZM7.7917 0C4.9067 0 2.9067 0.00999999 1.8767 1.01C0.876699 2.04 0.866699 4.13 0.866699 6.925C3.9667 6.825 5.3817 6.75 6.5167 5.65C7.6167 4.515 7.6967 3.1 7.7917 0ZM9.2167 5.65C8.1167 4.515 8.0367 3.1 7.9417 0C10.8317 0 12.8267 0.00999999 13.8567 1.01C14.8567 2.04 14.8667 4.13 14.8667 6.925C11.7667 6.825 10.3517 6.75 9.2167 5.65Z" fill="white"/>
</g>
<defs>
<clipPath id="clip0_54_1152">
<rect width="14" height="14" fill="white" transform="translate(0.866699)"/>
</clipPath>
</defs>
</svg>

<svg width="15" height="14" fill="none" xmlns="http://www.w3.org/2000/svg"><g clip-path="url(#a)"><path d="M9.217 8.35c-1.1 1.135-1.18 2.55-1.275 5.65 2.89 0 4.885-.01 5.915-1.01 1-1.03 1.01-3.12 1.01-5.915-3.1.1-4.515.175-5.65 1.275ZM.867 7.075c0 2.795.01 4.885 1.01 5.915 1.03 1 3.025 1.01 5.915 1.01-.1-3.1-.175-4.515-1.275-5.65-1.135-1.1-2.55-1.18-5.65-1.275ZM7.792 0C4.907 0 2.907.01 1.877 1.01c-1 1.03-1.01 3.12-1.01 5.915 3.1-.1 4.515-.175 5.65-1.275C7.617 4.515 7.697 3.1 7.792 0Zm1.425 5.65C8.117 4.515 8.037 3.1 7.942 0c2.89 0 4.885.01 5.915 1.01 1 1.03 1.01 3.12 1.01 5.915-3.1-.1-4.515-.175-5.65-1.275Z" fill="#fff"/></g><defs><clipPath id="a"><path fill="#fff" transform="translate(.867)" d="M0 0h14v14H0z"/></clipPath></defs></svg>
